Yaru++/apps/scalable/gitkraken.svg

<svg enable-background="new" height="256" viewBox="0 0 256 256" width="256" xmlns="http://www.w3.org/2000/svg" xmlns:xlink="http://www.w3.org/1999/xlink">
  <filter id="filter11191" color-interpolation-filters="sRGB" height="1.024" width="1.024" x="-.01" y="-.01">
    <feGaussianBlur stdDeviation="1.12"/>
  </filter>
  <filter id="filter11210" color-interpolation-filters="sRGB" height="1.096" width="1.096" x="-.05" y="-.05">
    <feGaussianBlur stdDeviation="4.48"/>
  </filter>
  <circle cx="128.752" cy="127.248" filter="url(#filter11210)" opacity=".1" r="112"/>
  <circle cx="128.752" cy="125.248" filter="url(#filter11191)" opacity=".1" r="112"/>
  <circle cx="128.752" cy="123.248" opacity=".1" r="114"/>
  <rect fill="#d5d3cf" height="212.8" rx="104.533" width="209.067" x="24.18" y="19.55"/>
  <path d="m240.75624 123.248a112 112 0 0 1 -111.99997 111.99999 112 112 0 0 1 -112.000035-111.99999 112 112 0 0 1 112.000035-112.000004 112 112 0 0 1 111.99997 112.000004z" fill="#3d3846"/>
  <path d="m396.82165 229.45358c-1.0641-2.76634-4.25856-4.04456-6.81289-2.98024-1.91615.85185-3.1934 2.76823-3.1934 4.6846 0 .63732 0 1.27675.42612 1.70164 4.89664 12.98785 7.664 27.03853 7.664 41.94152 0 60.25174-44.92183 110.28323-103.25638 117.73418v-55.56712c3.61846-.63732 7.02491-1.70373 10.43135-2.76635v46.62404c47.47716-11.49658 83.03076-54.50199 83.03076-106.02475 0-41.08924-22.77997-77.07005-56.4173-95.59249-2.55433-1.48919-5.74876-.42488-7.02692 2.34231-.42506.63942-.42506 1.49128-.42506 2.34231 0 1.91615 1.06415 3.61863 2.55433 4.47069 30.44494 16.81915 51.09663 49.39332 51.09663 86.65024 0 41.94131-25.97437 77.70906-62.80614 92.18588v-41.30232c6.38783-1.91615 11.07145-7.87709 11.07145-15.11604 0-5.96072-2.9804-10.85842-7.87704-13.62561 3.61848-35.76772 20.01261-26.18647 20.01261-37.68303v-6.6008c0-17.03221-39.38712-72.59934-57.90953-73.87649h-3.40652c-18.52241 1.27883-57.90852 56.84428-57.90852 73.87649v6.59994c0 11.28331 16.1801 1.91408 20.01261 37.68285-4.68462 2.76739-7.665 7.87688-7.665 13.62581 0 7.02587 4.68461 12.9866 11.07145 15.11584v41.30336c-36.61876-14.47789-62.80615-50.24541-62.80615-92.18693 0-37.25691 20.65168-69.83109 51.09662-86.65024 2.34231-1.27674 3.40644-4.25762 2.12826-6.81279-.63706-1.91617-2.55431-2.97943-4.47057-2.97943-.85111 0-1.70322.21245-2.55433.63732-33.63836 18.52245-56.42032 54.50326-56.42032 95.59249 0 51.52277 35.55461 94.52819 83.45682 106.23783v-46.6251c3.40645 1.06432 6.81289 2.12925 10.43235 2.76741v55.56713c-58.33356-7.66403-103.25538-57.4835-103.25538-117.94727 0-14.6899 2.76735-28.7408 7.664-41.94152 1.06513-2.55433-.21204-5.53459-2.76738-6.59973-.63907-.21244-1.27715-.42489-1.91624-.42489-2.12927 0-4.04552 1.27674-4.89662 3.40641-5.53573 14.2648-8.51611 29.59372-8.51611 45.56078 0 69.61909 54.92813 126.25031 123.90807 129.01876v-65.3604c1.91625.21244 5.32269.21244 5.32269.21244s3.40644 0 5.32269-.21244v65.3604c68.97994-2.76845 123.90807-59.39967 123.90807-129.01876-.21204-15.96706-2.9804-31.29598-8.30308-45.34793zm-97.08258 73.6647c1.91625-1.91617 4.47057-3.19459 7.45095-3.19459 2.9814 0 5.53573 1.27885 7.45097 3.19459 1.91725 1.91406 3.19442 4.4705 3.19442 7.45097 0 2.98025-1.27717 5.53562-3.19341 7.45095-1.91625 1.91617-4.47058 3.19439-7.45097 3.19439-2.98139 0-5.53571-1.27674-7.45196-3.19355-1.91625-1.91617-3.19342-4.47154-3.19342-7.45095 0-2.98131 1.27717-5.5367 3.19342-7.45181zm-47.6902 14.90192c-1.91625 1.91617-4.47057 3.19439-7.45095 3.19439-2.9814 0-5.53573-1.27674-7.45097-3.19355-2.13029-1.91617-3.19443-4.47154-3.19443-7.45095 0-2.98131 1.27718-5.5367 3.19342-7.45181 1.91625-1.91617 4.47058-3.19459 7.45097-3.19459 2.98139 0 5.53571 1.27885 7.45196 3.19459 1.91625 1.91406 3.19342 4.4705 3.19342 7.45097-.21204 2.98025-1.27717 5.53562-3.19342 7.45095z" fill="#17988c" transform="matrix(.86666673 0 0 .86666673 -110.35189 -114.7296)"/>
  <path d="m128.752 235.248a112 112 0 0 1 -112-112 112 112 0 0 1 .04102-1.16992 112 112 0 0 0 111.95898 111.16992 112 112 0 0 0 111.95898-110.83008 112 112 0 0 1 .041.83008 112 112 0 0 1 -112 112z" opacity=".2"/>
  <path d="m172.78711 40.019531c-1.7645-.172642-3.53052.79703-4.36133 2.595703-.36838.554164-.36719 1.291738-.36719 2.029297 0 .265387.03133.523668.07618.777344.05144-.291917.13249-.568179.29101-.806641 1.10774-2.398231 3.87609-3.321881 6.08984-2.03125 28.85065 15.886646 48.47363 46.595792 48.87696 81.746096.00279-.3004.01953-.59737.01953-.89844 0-35.610677-19.74413-66.794873-48.89649-82.847656-.55343-.322657-1.14035-.506905-1.72851-.564453zm-87.761719.011719c-.737629 0-1.475262.184514-2.212891.552734-29.153247 16.052792-48.898437 47.236988-48.898438 82.847656 0 .30107.016736.59804.019532.89844.403359-35.150295 20.027377-65.859441 48.878906-81.746096.737629-.36822 1.475262-.552734 2.212891-.552734 1.660758 0 3.322881.92135 3.875 2.582031.159288.318429.265666.644459.34375.972657.218965-.958988.143043-1.999523-.34375-2.972657-.552119-1.660681-2.214242-2.582031-3.875-2.582031zm42.070309.369141c-16.05275 1.108319-50.187497 49.264141-50.187497 64.025389v2c0-14.761248 34.134747-62.91707 50.187497-64.025389h2.95118c16.05275 1.106863 50.18945 49.264141 50.18945 64.025389v-2c0-14.761248-34.1367-62.918526-50.18945-64.025389zm-98.714841 40.59375c-1.845367 0-3.50652 1.105457-4.24414 2.951171-4.797633 12.362828-7.38086 25.648208-7.38086 39.486328 0 .32905.008893.656.011719.98438.123388-13.47202 2.689185-26.411117 7.369141-38.470708.73762-1.845714 2.398773-2.951171 4.24414-2.951171.553878 0 1.106296.183072 1.660157.367187 1.345814.560975 2.273064 1.738781 2.59375 3.070313.488468-2.047742-.592474-4.236123-2.59375-5.070313-.553861-.184115-1.106279-.367187-1.660157-.367187zm201.001951.230468c-.58527-.011602-1.17312.091663-1.72656.322266-1.66066.73827-2.76758 2.399693-2.76758 4.060547 0 .378154.00649.752652.125 1.072266.32194-1.322371 1.29392-2.533248 2.64258-3.132813 2.21375-.922411 4.98208.18649 5.9043 2.583984 4.53552 11.973858 6.92585 25.018131 7.17968 38.605471.00497-.43493.01563-.86857.01563-1.30469-.18377-13.83812-2.58232-27.122423-7.19531-39.300781-.69167-1.798121-2.42193-2.871443-4.17774-2.90625zm2.50586 43.212891c-.4969 51.76756-39.24736 94.61338-89.47851 101.0293v2c50.55661-6.45749 89.49023-49.81698 89.49023-102.03516 0-.33243-.00855-.66269-.01172-.99414zm-206.080076.00781c-.003206.32889-.011719.65669-.011719.98633 0 52.40194 38.932526 95.57854 89.488285 102.2207v-2c-50.228827-6.5992-88.977425-49.26364-89.476566-101.20703zm16.982422.10938c-.004311.35387-.017578.70568-.017578 1.06054 0 36.34932 22.695379 67.34703 54.43164 79.89454v-2c-31.461472-12.43887-54.025458-43.01332-54.414062-78.95508zm171.746094 0c-.38526 35.94182-22.76942 66.51707-54.41406 78.95508v2c31.92087-12.54658 54.43164-43.5454 54.43164-79.89454 0-.35509-.01326-.70644-.01758-1.06054zm-51.42773 18.38281c-.07504.61443-.15122 1.22086-.2168 1.86914 3.95186 2.23328 6.46029 6.06731 6.78711 10.75586.02073-.31356.03906-.62764.03906-.94727 0-5.07582-2.49688-9.25831-6.60937-11.67773zm-69.083989.01172c-3.927048 2.42806-6.416016 6.77658-6.416016 11.66406 0 .32469.016367.64577.039063.96484.330643-4.55564 2.827124-8.54257 6.603515-10.77343-.068954-.64355-.148606-1.24513-.226562-1.85547zm16.744139 12.29297c-.30515 2.23498-1.19625 4.16376-2.67969 5.64648-1.66075 1.66068-3.87403 2.76758-6.45703 2.76758-2.583878 0-4.797154-1.10634-6.457029-2.76758-1.597239-1.4367-2.499593-3.2884-2.714843-5.43359-.03536.31934-.054688.64464-.054688.97656 0 2.58216.92328 4.79635 2.769531 6.45703 1.659875 1.66124 3.873151 2.76758 6.457029 2.76758 2.583 0 4.79628-1.1069 6.45703-2.76758 1.66075-1.65995 2.58381-3.8761 2.76758-6.45898 0-.40633-.03526-.8001-.08789-1.1875zm54.27735.1875c-.24479 2.15577-1.26693 4.0176-2.70899 5.45898-1.66075 1.66068-3.87403 2.76758-6.45703 2.76758-2.58387 0-4.79823-1.10634-6.45898-2.76758-1.44208-1.44201-2.4642-3.30172-2.70899-5.45703-.03711.32697-.05859.65981-.05859 1 0 2.58216 1.10682 4.79635 2.76758 6.45703 1.66075 1.66124 3.87511 2.76758 6.45898 2.76758 2.583 0 4.79628-1.1069 6.45703-2.76758 1.66074-1.65995 2.76758-3.8761 2.76758-6.45898 0-.34013-.02147-.67305-.05859-1z" fill="#fcfcfc" opacity=".3" transform="matrix(1.00000002641 0 0 1.00000002641 -.00000393582 .00000171742)"/>
  <path d="m128.752 11.248007a112 112 0 0 0 -112 111.999993 112 112 0 0 0 .04102 1.16992 112 112 0 0 1 111.95898-111.169913 112 112 0 0 1 111.95898 110.830073 112 112 0 0 0 .041-.83008 112 112 0 0 0 -112-111.999993z" fill="#fff" opacity=".3"/>
</svg>

<svg xmlns="http://www.w3.org/2000/svg" xmlns:xlink="http://www.w3.org/1999/xlink" style="enable-background:new" width="256" height="256" version="1.0" viewBox="0 0 256 256">
 <title id="title4162">
  Adwaita Icon Template
 </title>
 <defs>
  <linearGradient id="linearGradient950">
   <stop style="stop-color:#9a9996" id="stop946" offset="0"/>
   <stop style="stop-color:#77767b" id="stop948" offset="1"/>
  </linearGradient>
  <linearGradient id="linearGradient1001" x1="1660.857" x2="1662.99" y1="806.297" y2="812.882" gradientTransform="matrix(1.8293937,-0.81599442,0.81599442,1.8293937,-3645.9624,100.02949)" gradientUnits="userSpaceOnUse" xlink:href="#linearGradient950"/>
  <clipPath id="clipPath5154" clipPathUnits="userSpaceOnUse">
   <circle style="fill:url(#radialGradient5158)" cx="128" cy="924.362" r="109.647"/>
  </clipPath>
  <clipPath id="clipPath977" clipPathUnits="userSpaceOnUse">
   <circle style="fill:url(#radialGradient5158)" cx="128" cy="924.362" r="109.647"/>
  </clipPath>
  <clipPath id="clipPath4688" clipPathUnits="userSpaceOnUse">
   <path style="fill:url(#radialGradient4692);stroke:#a7003f;stroke-linecap:round;stroke-linejoin:round" d="m 106.42383,889.60156 c -2.2448,-0.0524 -4.09304,1.75264 -4.09375,3.99805 v 32.64453 32.64453 c -4e-5,3.07923 3.33305,5.004 6,3.46485 l 28.26953,-16.32227 28.27148,-16.32227 c 2.66559,-1.54001 2.66559,-5.38772 0,-6.92773 l -28.27148,-16.32227 -28.26953,-16.32226 c -0.58054,-0.3353 -1.23603,-0.51932 -1.90625,-0.53516 z"/>
  </clipPath>
  <clipPath id="clipPath4564" clipPathUnits="userSpaceOnUse">
   <circle style="fill:url(#radialGradient4568)" cx="128" cy="924.362" r="109.647"/>
  </clipPath>
  <clipPath id="clipPath6215" clipPathUnits="userSpaceOnUse">
   <path style="fill:url(#radialGradient6219)" d="m 105.17325,806.18572 c -3.06859,0.56361 -6.11393,1.24721 -9.129005,2.04923 -3.838255,1.06506 -7.62084,2.32142 -11.333578,3.76438 -3.712189,1.44307 -7.34989,3.07087 -10.899472,4.87732 -3.549153,1.80656 -7.005749,3.78947 -10.35684,5.94129 -3.351877,2.15253 -6.593991,4.47137 -9.714191,6.94783 -3.119992,2.47544 -6.114241,5.10535 -8.971529,7.87988 -0.367219,0.38909 -0.731819,0.78065 -1.093777,1.17464 2.60205,17.85956 16.832359,40.03752 30.863064,55.74236 -4.76734,8.84435 -7.265993,18.73329 -7.272057,28.78068 0.02104,2.87431 0.246096,5.7435 0.673482,8.58593 -20.257302,-9.18513 -43.077023,-26.53494 -52.798465,-47.36396 -0.440667,1.15171 -0.863474,2.31018 -1.268271,3.47498 -1.176789,3.80495 -2.162562,7.66637 -2.953625,11.56979 -0.79154,3.90311 -1.3874065,7.84335 -1.7853678,11.80598 -0.39733,3.96334 -0.5961891,7.94407 -0.5958321,11.92728 -4.394e-4,2.81936 0.098928,5.63785 0.2979155,8.45018 0.282275,3.97319 0.763088,7.92978 1.4406374,11.85493 0.625626,3.51826 1.408798,7.00668 2.347153,10.45473 16.778133,6.68355 43.114514,5.45001 63.748015,1.14301 6.818545,11.02763 16.987182,19.58379 29.018153,24.41667 -18.071844,12.93645 -44.490188,24.02095 -67.37308,22.03245 1.384097,1.665 2.813203,3.2921 4.285735,4.8794 2.774977,2.8571 5.691103,5.5737 8.737453,8.1395 3.046107,2.5658 6.218619,4.9777 9.505651,7.2266 3.287242,2.2488 6.684891,4.3319 10.180217,6.2413 3.495379,1.9096 7.084075,3.6433 10.752641,5.1944 3.66896,1.5509 7.413193,2.9174 11.218668,4.0942 1.438565,0.3959 2.884421,0.7648 4.336807,1.1066 14.138748,-11.1844 26.206378,-34.5828 32.780368,-54.56406 12.95816,-0.38251 25.45395,-4.90132 35.65955,-12.89544 2.15922,22.12638 -1.46693,50.5581 -14.64692,69.3832 3.06859,-0.5636 6.11393,-1.2473 9.129,-2.0493 3.83826,-1.0651 7.62084,-2.3214 11.33358,-3.7644 3.71219,-1.4431 7.34989,-3.0709 10.89947,-4.8773 3.54915,-1.8066 7.00575,-3.7895 10.35684,-5.9413 3.35188,-2.1525 6.59399,-4.4714 9.71419,-6.9478 3.11999,-2.4754 6.11424,-5.1054 8.97153,-7.8799 0.36722,-0.3891 0.73182,-0.7806 1.09378,-1.1746 -2.60204,-17.85957 -16.83236,-40.03755 -30.86307,-55.74238 4.76735,-8.84435 7.266,-18.7333 7.27207,-28.78069 -0.021,-2.8743 -0.24611,-5.74349 -0.6735,-8.58592 20.25731,9.18513 43.07704,26.53494 52.79848,47.36396 0.44067,-1.15171 0.86347,-2.31018 1.26827,-3.47499 1.17679,-3.80495 2.16256,-7.66636 2.95362,-11.56978 0.79154,-3.90311 1.38741,-7.84335 1.78537,-11.80598 0.39733,-3.96334 0.59619,-7.94408 0.59583,-11.92729 4.4e-4,-2.81936 -0.0989,-5.63784 -0.29791,-8.45017 -0.28228,-3.97319 -0.76309,-7.92978 -1.44064,-11.85493 -0.62776,-3.53416 -1.41449,-7.03823 -2.35779,-10.50154 -20.56165,-7.32804 -45.89823,-4.79548 -63.74906,-1.11372 -6.81835,-11.01918 -16.98234,-19.56874 -29.00647,-24.39915 18.07184,-12.93645 44.49019,-24.02091 67.37307,-22.03241 -1.38409,-1.66502 -2.8132,-3.2921 -4.28573,-4.87944 -2.77498,-2.85712 -5.6911,-5.57368 -8.73745,-8.13949 -3.04611,-2.56581 -6.21862,-4.97769 -9.50565,-7.22659 -3.28724,-2.24885 -6.68489,-4.3319 -10.18022,-6.24135 -3.49538,-1.90963 -7.08407,-3.64325 -10.75264,-5.19438 -3.66896,-1.55092 -7.41319,-2.91736 -11.21867,-4.09421 -1.42662,-0.39262 -2.86041,-0.75869 -4.30063,-1.09804 -14.14688,11.18369 -26.2293,34.57475 -32.8107,54.55552 -12.96018,0.38127 -25.4582,4.90015 -35.665394,12.89544 -2.15922,-22.12637 1.466931,-50.55807 14.646924,-69.38315 z"/>
  </clipPath>
  <linearGradient id="linearGradient954">
   <stop id="stop950" offset="0" style="stop-color:#faf8f6"/>
   <stop id="stop952" offset="1" style="stop-color:#f1f0e9"/>
  </linearGradient>
  <filter style="color-interpolation-filters:sRGB" id="filter11191" width="1.024" height="1.024" x="-.01" y="-.01">
   <feGaussianBlur id="feGaussianBlur11193" stdDeviation="1.12"/>
  </filter>
  <filter style="color-interpolation-filters:sRGB" id="filter11210" width="1.096" height="1.096" x="-.05" y="-.05">
   <feGaussianBlur id="feGaussianBlur11212" stdDeviation="4.48"/>
  </filter>
 </defs>
 <circle style="opacity:0.1;filter:url(#filter11210)" cx="128.752" cy="127.248" r="112"/>
 <circle style="opacity:0.1;filter:url(#filter11191)" cx="128.752" cy="125.248" r="112"/>
 <circle style="opacity:0.1" cx="128.752" cy="123.248" r="114"/>
 <rect style="fill:#d5d3cf" width="209.067" height="212.8" x="24.18" y="19.55" rx="104.533" ry="104.533"/>
 <path style="fill:#3d3846" d="M 240.75624,123.248 A 112,112 0 0 1 128.75627,235.24799 112,112 0 0 1 16.756235,123.248 112,112 0 0 1 128.75627,11.247996 112,112 0 0 1 240.75624,123.248 Z"/>
 <g style="enable-background:new" id="layer1" transform="matrix(0.86666673,0,0,0.86666673,-110.35189,-114.7296)">
  <g style="fill:#3d3846" id="layer9">
   <path style="fill:#17988c" d="m 396.82165,229.45358 c -1.0641,-2.76634 -4.25856,-4.04456 -6.81289,-2.98024 -1.91615,0.85185 -3.1934,2.76823 -3.1934,4.6846 0,0.63732 0,1.27675 0.42612,1.70164 4.89664,12.98785 7.664,27.03853 7.664,41.94152 0,60.25174 -44.92183,110.28323 -103.25638,117.73418 v -55.56712 c 3.61846,-0.63732 7.02491,-1.70373 10.43135,-2.76635 v 46.62404 c 47.47716,-11.49658 83.03076,-54.50199 83.03076,-106.02475 0,-41.08924 -22.77997,-77.07005 -56.4173,-95.59249 -2.55433,-1.48919 -5.74876,-0.42488 -7.02692,2.34231 -0.42506,0.63942 -0.42506,1.49128 -0.42506,2.34231 0,1.91615 1.06415,3.61863 2.55433,4.47069 30.44494,16.81915 51.09663,49.39332 51.09663,86.65024 0,41.94131 -25.97437,77.70906 -62.80614,92.18588 v -41.30232 c 6.38783,-1.91615 11.07145,-7.87709 11.07145,-15.11604 0,-5.96072 -2.9804,-10.85842 -7.87704,-13.62561 3.61848,-35.76772 20.01261,-26.18647 20.01261,-37.68303 v -6.6008 c 0,-17.03221 -39.38712,-72.59934 -57.90953,-73.87649 h -3.40652 c -18.52241,1.27883 -57.90852,56.84428 -57.90852,73.87649 v 6.59994 c 0,11.28331 16.1801,1.91408 20.01261,37.68285 -4.68462,2.76739 -7.665,7.87688 -7.665,13.62581 0,7.02587 4.68461,12.9866 11.07145,15.11584 v 41.30336 c -36.61876,-14.47789 -62.80615,-50.24541 -62.80615,-92.18693 0,-37.25691 20.65168,-69.83109 51.09662,-86.65024 2.34231,-1.27674 3.40644,-4.25762 2.12826,-6.81279 -0.63706,-1.91617 -2.55431,-2.97943 -4.47057,-2.97943 -0.85111,0 -1.70322,0.21245 -2.55433,0.63732 -33.63836,18.52245 -56.42032,54.50326 -56.42032,95.59249 0,51.52277 35.55461,94.52819 83.45682,106.23783 v -46.6251 c 3.40645,1.06432 6.81289,2.12925 10.43235,2.76741 v 55.56713 c -58.33356,-7.66403 -103.25538,-57.4835 -103.25538,-117.94727 0,-14.6899 2.76735,-28.7408 7.664,-41.94152 1.06513,-2.55433 -0.21204,-5.53459 -2.76738,-6.59973 -0.63907,-0.21244 -1.27715,-0.42489 -1.91624,-0.42489 -2.12927,0 -4.04552,1.27674 -4.89662,3.40641 -5.53573,14.2648 -8.51611,29.59372 -8.51611,45.56078 0,69.61909 54.92813,126.25031 123.90807,129.01876 v -65.3604 c 1.91625,0.21244 5.32269,0.21244 5.32269,0.21244 0,0 3.40644,0 5.32269,-0.21244 v 65.3604 c 68.97994,-2.76845 123.90807,-59.39967 123.90807,-129.01876 -0.21204,-15.96706 -2.9804,-31.29598 -8.30308,-45.34793 z m -97.08258,73.6647 c 1.91625,-1.91617 4.47057,-3.19459 7.45095,-3.19459 2.9814,0 5.53573,1.27885 7.45097,3.19459 1.91725,1.91406 3.19442,4.4705 3.19442,7.45097 0,2.98025 -1.27717,5.53562 -3.19341,7.45095 -1.91625,1.91617 -4.47058,3.19439 -7.45097,3.19439 -2.98139,0 -5.53571,-1.27674 -7.45196,-3.19355 -1.91625,-1.91617 -3.19342,-4.47154 -3.19342,-7.45095 0,-2.98131 1.27717,-5.5367 3.19342,-7.45181 z m -47.6902,14.90192 c -1.91625,1.91617 -4.47057,3.19439 -7.45095,3.19439 -2.9814,0 -5.53573,-1.27674 -7.45097,-3.19355 -2.13029,-1.91617 -3.19443,-4.47154 -3.19443,-7.45095 0,-2.98131 1.27718,-5.5367 3.19342,-7.45181 1.91625,-1.91617 4.47058,-3.19459 7.45097,-3.19459 2.98139,0 5.53571,1.27885 7.45196,3.19459 1.91625,1.91406 3.19342,4.4705 3.19342,7.45097 -0.21204,2.98025 -1.27717,5.53562 -3.19342,7.45095 z"/>
  </g>
 </g>
 <path style="opacity:0.2" d="m 128.752,235.248 a 112,112 0 0 1 -112,-112 112,112 0 0 1 0.04102,-1.16992 A 112,112 0 0 0 128.752,233.248 112,112 0 0 0 240.71098,122.41792 a 112,112 0 0 1 0.041,0.83008 112,112 0 0 1 -112,112 z"/>
 <g transform="matrix(0.86666673,0,0,0.86666673,-110.35189,-114.7296)" style="enable-background:new">
  <g style="fill:#3d3846">
   <path style="fill:#fcfcfc;opacity:0.3" d="M 172.78711 40.019531 C 171.02261 39.846889 169.25659 40.816561 168.42578 42.615234 C 168.0574 43.169398 168.05859 43.906972 168.05859 44.644531 C 168.05859 44.909918 168.08992 45.168199 168.13477 45.421875 C 168.18621 45.129958 168.26726 44.853696 168.42578 44.615234 C 169.53352 42.217003 172.30187 41.293353 174.51562 42.583984 C 203.36627 58.47063 222.98925 89.179776 223.39258 124.33008 C 223.39537 124.02968 223.41211 123.73271 223.41211 123.43164 C 223.41211 87.820963 203.66798 56.636767 174.51562 40.583984 C 173.96219 40.261327 173.37527 40.077079 172.78711 40.019531 z M 85.025391 40.03125 C 84.287762 40.03125 83.550129 40.215764 82.8125 40.583984 C 53.659253 56.636776 33.914063 87.820972 33.914062 123.43164 C 33.914062 123.73271 33.930798 124.02968 33.933594 124.33008 C 34.336953 89.179785 53.960971 58.470639 82.8125 42.583984 C 83.550129 42.215764 84.287762 42.03125 85.025391 42.03125 C 86.686149 42.03125 88.348272 42.9526 88.900391 44.613281 C 89.059679 44.93171 89.166057 45.25774 89.244141 45.585938 C 89.463106 44.62695 89.387184 43.586415 88.900391 42.613281 C 88.348272 40.9526 86.686149 40.03125 85.025391 40.03125 z M 127.0957 40.400391 C 111.04295 41.50871 76.908203 89.664532 76.908203 104.42578 L 76.908203 106.42578 C 76.908203 91.664532 111.04295 43.50871 127.0957 42.400391 L 130.04688 42.400391 C 146.09963 43.507254 180.23633 91.664532 180.23633 106.42578 L 180.23633 104.42578 C 180.23633 89.664532 146.09963 41.507254 130.04688 40.400391 L 127.0957 40.400391 z M 28.380859 80.994141 C 26.535492 80.994141 24.874339 82.099598 24.136719 83.945312 C 19.339086 96.30814 16.755859 109.59352 16.755859 123.43164 C 16.755859 123.76069 16.764752 124.08764 16.767578 124.41602 C 16.890966 110.944 19.456763 98.004903 24.136719 85.945312 C 24.874339 84.099598 26.535492 82.994141 28.380859 82.994141 C 28.934737 82.994141 29.487155 83.177213 30.041016 83.361328 C 31.38683 83.922303 32.31408 85.100109 32.634766 86.431641 C 33.123234 84.383899 32.042292 82.195518 30.041016 81.361328 C 29.487155 81.177213 28.934737 80.994141 28.380859 80.994141 z M 229.38281 81.224609 C 228.79754 81.213007 228.20969 81.316272 227.65625 81.546875 C 225.99559 82.285145 224.88867 83.946568 224.88867 85.607422 C 224.88867 85.985576 224.89516 86.360074 225.01367 86.679688 C 225.33561 85.357317 226.30759 84.14644 227.65625 83.546875 C 229.87 82.624464 232.63833 83.733365 233.56055 86.130859 C 238.09607 98.104717 240.4864 111.14899 240.74023 124.73633 C 240.7452 124.3014 240.75586 123.86776 240.75586 123.43164 C 240.57209 109.59352 238.17354 96.309217 233.56055 84.130859 C 232.86888 82.332738 231.13862 81.259416 229.38281 81.224609 z M 231.88867 124.4375 C 231.39177 176.20506 192.64131 219.05088 142.41016 225.4668 L 142.41016 227.4668 C 192.96677 221.00931 231.90039 177.64982 231.90039 125.43164 C 231.90039 125.09921 231.89184 124.76895 231.88867 124.4375 z M 25.808594 124.44531 C 25.805388 124.7742 25.796875 125.102 25.796875 125.43164 C 25.796875 177.83358 64.729401 221.01018 115.28516 227.65234 L 115.28516 225.65234 C 65.056333 219.05314 26.307735 176.3887 25.808594 124.44531 z M 42.791016 124.55469 C 42.786705 124.90856 42.773438 125.26037 42.773438 125.61523 C 42.773438 161.96455 65.468817 192.96226 97.205078 205.50977 L 97.205078 203.50977 C 65.743606 191.0709 43.17962 160.49645 42.791016 124.55469 z M 214.53711 124.55469 C 214.15185 160.49651 191.76769 191.07176 160.12305 203.50977 L 160.12305 205.50977 C 192.04392 192.96319 214.55469 161.96437 214.55469 125.61523 C 214.55469 125.26014 214.54143 124.90879 214.53711 124.55469 z M 163.10938 142.9375 C 163.03434 143.55193 162.95816 144.15836 162.89258 144.80664 C 166.84444 147.03992 169.35287 150.87395 169.67969 155.5625 C 169.70042 155.24894 169.71875 154.93486 169.71875 154.61523 C 169.71875 149.53941 167.22187 145.35692 163.10938 142.9375 z M 94.025391 142.94922 C 90.098343 145.37728 87.609375 149.7258 87.609375 154.61328 C 87.609375 154.93797 87.625742 155.25905 87.648438 155.57812 C 87.979081 151.02248 90.475562 147.03555 94.251953 144.80469 C 94.182999 144.16114 94.103347 143.55956 94.025391 142.94922 z M 110.76953 155.24219 C 110.46438 157.47717 109.57328 159.40595 108.08984 160.88867 C 106.42909 162.54935 104.21581 163.65625 101.63281 163.65625 C 99.048932 163.65625 96.835656 162.54991 95.175781 160.88867 C 93.578542 159.45197 92.676188 157.60027 92.460938 155.45508 C 92.425578 155.77442 92.40625 156.09972 92.40625 156.43164 C 92.40625 159.0138 93.32953 161.22799 95.175781 162.88867 C 96.835656 164.54991 99.048932 165.65625 101.63281 165.65625 C 104.21581 165.65625 106.42909 164.54935 108.08984 162.88867 C 109.75059 161.22872 110.67365 159.01257 110.85742 156.42969 C 110.85742 156.02336 110.82216 155.62959 110.76953 155.24219 z M 165.04688 155.42969 C 164.80209 157.58546 163.77995 159.44729 162.33789 160.88867 C 160.67714 162.54935 158.46386 163.65625 155.88086 163.65625 C 153.29699 163.65625 151.08263 162.54991 149.42188 160.88867 C 147.9798 159.44666 146.95768 157.58695 146.71289 155.43164 C 146.67578 155.75861 146.6543 156.09145 146.6543 156.43164 C 146.6543 159.0138 147.76112 161.22799 149.42188 162.88867 C 151.08263 164.54991 153.29699 165.65625 155.88086 165.65625 C 158.46386 165.65625 160.67714 164.54935 162.33789 162.88867 C 163.99863 161.22872 165.10547 159.01257 165.10547 156.42969 C 165.10547 156.08956 165.084 155.75664 165.04688 155.42969 z" transform="matrix(1.1538461,0,0,1.1538461,127.32909,132.3803)"/>
  </g>
 </g>
 <path style="opacity:0.3;fill:#ffffff" d="M 128.752,11.248007 A 112,112 0 0 0 16.752,123.248 112,112 0 0 0 16.79302,124.41792 112,112 0 0 1 128.752,13.248007 112,112 0 0 1 240.71098,124.07808 a 112,112 0 0 0 0.041,-0.83008 112,112 0 0 0 -112,-111.999993 z"/>
</svg>
